assets/icon-dairy-free.svg

<svg
  class="icon icon-accordion icon-dairy-free"
  aria-hidden="true"
  focusable="false"
  xmlns="http://www.w3.org/2000/svg"
  width="20"
  height="20"
  viewBox="0 0 20 20"
>
  <path d="M6.20039 12.9182L2.4549 15.5063L1.88641 14.6837L5.63191 12.0955L6.20039 12.9182Z" />
  <path d="M17.3978 5.26416L14.2983 7.3195L13.7457 6.48609L16.8452 4.43075L17.3978 5.26416Z" />
  <path d="M5.15762 12.7983L4.98999 12.5573L5.81101 11.9864L5.97864 12.2274L5.15762 12.7983Z" />
  <path d="M9.93939 18.4998C14.6338 18.4998 18.4394 14.6942 18.4394 9.99976C18.4394 5.30534 14.6338 1.49976 9.93939 1.49976C5.24497 1.49976 1.43939 5.30534 1.43939 9.99976C1.43939 14.6942 5.24497 18.4998 9.93939 18.4998ZM9.93939 19.4998C15.1861 19.4998 19.4394 15.2465 19.4394 9.99976C19.4394 4.75305 15.1861 0.499756 9.93939 0.499756C4.69269 0.499756 0.439392 4.75305 0.439392 9.99976C0.439392 15.2465 4.69269 19.4998 9.93939 19.4998Z" fill-rule="evenodd" />
  <path d="M7.72041 4.91077L6.22367 7.185C6.07186 7.41567 5.7618 7.4796 5.53113 7.32779C5.30046 7.17598 5.23653 6.86592 5.38834 6.63525L6.88508 4.36102L7.72041 4.91077ZM13.7064 5.17641L12.5414 7.35371L11.6597 6.88194L12.8247 4.70465L13.7064 5.17641Z" />
  <path d="M13.4248 4.63432L14.6478 6.60375C14.7462 6.76214 14.7983 6.94487 14.7983 7.13132V14.0304C14.7983 14.3 14.6894 14.5582 14.4963 14.7465L12.8465 16.3545C12.6598 16.5366 12.4093 16.6384 12.1485 16.6384H10.7222V15.6384H12.1485L13.7983 14.0304V7.13132L12.5752 5.16189L13.4248 4.63432Z" />
  <path d="M5.27887 6.95804C5.27887 6.6819 5.50273 6.45804 5.77887 6.45804H12.6346V15.6385C12.6346 16.1908 12.1869 16.6385 11.6346 16.6385H6.27887C5.72658 16.6385 5.27887 16.1908 5.27887 15.6385V6.95804ZM6.27887 7.45804V15.6385H11.6346V7.45804H6.27887Z" />
  <path d="M6.5 3.5C6.5 2.94772 6.94772 2.5 7.5 2.5H12.5C13.0523 2.5 13.5 2.94772 13.5 3.5V4.84992H12.5V3.5H7.5V5H6.5V3.5Z" />
  <path d="M13.4084 5.02249H6.95563V4.02249H13.4084V5.02249Z" />
</svg>

<svg xmlns="http://www.w3.org/2000/svg" class="icon icon-accordion icon-dairy-free" viewBox="0 0 20 20"><path d="m6.2 12.918-3.745 2.588-.569-.822 3.746-2.588zm11.198-7.654-3.1 2.055-.552-.833 3.1-2.055z"/><path d="m5.158 12.798-.168-.24.821-.572.168.241z"/><path fill-rule="evenodd" d="M9.94 18.5a8.5 8.5 0 1 0 0-17 8.5 8.5 0 0 0 0 17m0 1a9.5 9.5 0 1 0 0-19 9.5 9.5 0 0 0 0 19"/><path d="M7.72 4.91 6.224 7.186a.5.5 0 1 1-.836-.55l1.497-2.274zm5.986.266-1.165 2.178-.881-.472 1.165-2.177z"/><path d="m13.425 4.634 1.223 1.97a1 1 0 0 1 .15.527v6.9a1 1 0 0 1-.302.715l-1.65 1.609a1 1 0 0 1-.697.283h-1.427v-1h1.427l1.65-1.608V7.131l-1.224-1.97z"/><path d="M5.279 6.958a.5.5 0 0 1 .5-.5h6.856v9.18a1 1 0 0 1-1 1H6.279a1 1 0 0 1-1-1zm1 .5v8.18h5.356v-8.18zM6.5 3.5a1 1 0 0 1 1-1h5a1 1 0 0 1 1 1v1.35h-1V3.5h-5V5h-1z"/><path d="M13.408 5.022H6.956v-1h6.452z"/></svg>
